images/class_icons/quartermaster.svg

<svg height="400" viewBox="0 0 400 400" width="400" xmlns="http://www.w3.org/2000/svg"><path d="m199.496.43c-.434.522-27.431 177.822-27.431 180.146v.624l1.518.088c1.962.113 10.619.113 13.34 0l2.106-.087.221-.958c.493-2.141.971-5.115 5.612-34.966 4.232-27.217 4.749-30.162 5.29-30.162.56 0 .541-.101 2.69 13.765 6.651 42.909 7.252 46.724 8.179 51.91l.076.426 1.773.09c4.161.211 15.07.027 15.279-.259.48-.657.84 1.931-5.073-36.513-19.366-125.913-22.134-143.646-22.482-143.994-.236-.236-.936-.306-1.098-.11m72.98 26.529c-.348.282-.413.541-1.012 4.08-1.455 8.6-26.592 172.993-26.877 175.774l-.085.836 1.332.089c3.288.217 15.65.103 15.871-.147.347-.392.504-1.346 4.828-29.251 6.087-39.28 5.647-36.641 6.115-36.638.792.006.5-1.592 4.872 26.652 4.133 26.694 6.009 38.697 6.091 38.957.169.534 5.116.678 13.173.383 4.299-.157 4.161-.127 4.161-.902 0-1.026-26.565-175.328-27.196-178.44-.279-1.375-.712-1.848-1.273-1.393m-145.818.335c-.15.674-15.961 103.877-21.332 139.238-5.525 36.376-6.165 40.772-5.963 40.973.388.388 17.04.472 17.152.086.271-.93 1.399-7.947 4.8-29.858 5.936-38.245 5.935-38.242 6.733-34.751.576 2.523 1.951 11.038 5.284 32.727 1.802 11.725 4.119 26.42 4.692 29.757l.37 2.159 1.957.108c2.216.122 14.3.025 14.897-.12l.39-.094-.079-1.094c-.216-2.984-26.472-175.224-27.22-178.561-.174-.779-.281-.869-1.042-.871-.483-.002-.582.044-.639.301m69.024 160.634c-1.643.457-3.378 1.97-4.253 3.708l-.471.935v103.714 103.715h9.109 9.11v-103.793-103.792l-.502-.955c-.939-1.788-2.37-3.039-3.932-3.437-1.178-.301-8.064-.373-9.061-.095m-72.304 26.511c-1.629.246-3.406 1.616-4.393 3.388l-.496.89v86.728 86.728h9.041 9.042v-86.576-86.575l-.488-.97c-.675-1.34-1.819-2.5-3.116-3.159l-1.026-.521-3.926-.02c-2.16-.011-4.247.028-4.638.087m145.287.012c-1.639.24-3.369 1.584-4.471 3.471l-.496.851v86.545 86.546l1.046.086c.575.047 4.648.127 9.051.176l8.005.091-.043-86.898-.043-86.898-.291-.54c-.418-.775-2.457-2.714-3.201-3.043-1.114-.493-7.166-.738-9.557-.387" fill-rule="evenodd"/></svg>

<svg id="svg" xmlns="http://www.w3.org/2000/svg" xmlns:xlink="http://www.w3.org/1999/xlink" width="400" height="400" viewBox="0, 0, 400,400"><g id="svgg"><path id="path0" d="M199.496 0.430 C 199.062 0.952,172.065 178.252,172.065 180.576 L 172.065 181.200 173.583 181.288 C 175.545 181.401,184.202 181.401,186.923 181.288 L 189.029 181.201 189.250 180.243 C 189.743 178.102,190.221 175.128,194.862 145.277 C 199.094 118.060,199.611 115.115,200.152 115.115 C 200.712 115.115,200.693 115.014,202.842 128.880 C 209.493 171.789,210.094 175.604,211.021 180.790 L 211.097 181.216 212.870 181.306 C 217.031 181.517,227.940 181.333,228.149 181.047 C 228.629 180.390,228.989 182.978,223.076 144.534 C 203.710 18.621,200.942 0.888,200.594 0.540 C 200.358 0.304,199.658 0.234,199.496 0.430 M272.476 26.959 C 272.128 27.241,272.063 27.500,271.464 31.039 C 270.009 39.639,244.872 204.032,244.587 206.813 L 244.502 207.649 245.834 207.738 C 249.122 207.955,261.484 207.841,261.705 207.591 C 262.052 207.199,262.209 206.245,266.533 178.340 C 272.620 139.060,272.180 141.699,272.648 141.702 C 273.440 141.708,273.148 140.110,277.520 168.354 C 281.653 195.048,283.529 207.051,283.611 207.311 C 283.780 207.845,288.727 207.989,296.784 207.694 C 301.083 207.537,300.945 207.567,300.945 206.792 C 300.945 205.766,274.380 31.464,273.749 28.352 C 273.470 26.977,273.037 26.504,272.476 26.959 M126.658 27.294 C 126.508 27.968,110.697 131.171,105.326 166.532 C 99.801 202.908,99.161 207.304,99.363 207.505 C 99.751 207.893,116.403 207.977,116.515 207.591 C 116.786 206.661,117.914 199.644,121.315 177.733 C 127.251 139.488,127.250 139.491,128.048 142.982 C 128.624 145.505,129.999 154.020,133.332 175.709 C 135.134 187.434,137.451 202.129,138.024 205.466 L 138.394 207.625 140.351 207.733 C 142.567 207.855,154.651 207.758,155.248 207.613 L 155.638 207.519 155.559 206.425 C 155.343 203.441,129.087 31.201,128.339 27.864 C 128.165 27.085,128.058 26.995,127.297 26.993 C 126.814 26.991,126.715 27.037,126.658 27.294 M195.682 187.928 C 194.039 188.385,192.304 189.898,191.429 191.636 L 190.958 192.571 190.958 296.285 L 190.958 400.000 200.067 400.000 L 209.177 400.000 209.177 296.207 L 209.177 192.415 208.675 191.460 C 207.736 189.672,206.305 188.421,204.743 188.023 C 203.565 187.722,196.679 187.650,195.682 187.928 M123.378 214.439 C 121.749 214.685,119.972 216.055,118.985 217.827 L 118.489 218.717 118.489 305.445 L 118.489 392.173 127.530 392.173 L 136.572 392.173 136.572 305.597 L 136.572 219.022 136.084 218.052 C 135.409 216.712,134.265 215.552,132.968 214.893 L 131.942 214.372 128.016 214.352 C 125.856 214.341,123.769 214.380,123.378 214.439 M268.665 214.451 C 267.026 214.691,265.296 216.035,264.194 217.922 L 263.698 218.773 263.698 305.318 L 263.698 391.864 264.744 391.950 C 265.319 391.997,269.392 392.077,273.795 392.126 L 281.800 392.217 281.757 305.319 L 281.714 218.421 281.423 217.881 C 281.005 217.106,278.966 215.167,278.222 214.838 C 277.108 214.345,271.056 214.100,268.665 214.451 " stroke="none" fill="#000000" fill-rule="evenodd"></path></g></svg>
